wasmegg/rockets-tracker/src/badges/badge-7.svg

<svg xmlns="http://www.w3.org/2000/svg" xml:space="preserve" style="fill-rule:evenodd;clip-rule:evenodd;stroke-linejoin:round;stroke-miterlimit:2" viewBox="0 0 64 64"><path d="M.334-.749a.02.02 0 0 0-.018-.002L.31-.752.05-.753c-.013 0-.025.011-.025.024s.012.025.025.025l.229.001C.229-.61.195-.509.161-.41L.158-.4l-.065.004c-.013.001-.02.018-.017.03a.02.02 0 0 0 .012.014q.008.005.015.004l.006-.001.009-.001.017-.001h.006l-.008.025-.03.086-.023.092q-.012.044-.028.089L.04-.022a.024.024 0 0 0 .017.03.024.024 0 0 0 .03-.017l.029-.088Q.13-.143.14-.188a1 1 0 0 1 .028-.09l.025-.073.048.002a.025.025 0 0 0 .025-.025.025.025 0 0 0-.025-.024L.209-.399l.046-.13.016-.042.004-.009.002-.005v-.001l.009-.021.04-.079.016-.029a.025.025 0 0 0-.008-.034" style="fill:#fff;fill-rule:nonzero" transform="matrix(56 0 0 56 21.627 52.831)"/></svg>

<?xml version="1.0" encoding="UTF-8" standalone="no"?>
<!DOCTYPE svg PUBLIC "-//W3C//DTD SVG 1.1//EN" "http://www.w3.org/Graphics/SVG/1.1/DTD/svg11.dtd">
<svg width="100%" height="100%" viewBox="0 0 64 64" version="1.1" xmlns="http://www.w3.org/2000/svg" xmlns:xlink="http://www.w3.org/1999/xlink" xml:space="preserve" xmlns:serif="http://www.serif.com/" style="fill-rule:evenodd;clip-rule:evenodd;stroke-linejoin:round;stroke-miterlimit:2;">
    <g transform="matrix(1,0,0,1,-9.1796,21.8187)">
        <g transform="matrix(56,0,0,56,30.8061,31.0123)">
            <path d="M0.334,-0.749C0.328,-0.752 0.322,-0.753 0.316,-0.751C0.314,-0.752 0.312,-0.752 0.31,-0.752C0.223,-0.752 0.137,-0.753 0.05,-0.753C0.037,-0.753 0.025,-0.742 0.025,-0.729C0.025,-0.716 0.037,-0.704 0.05,-0.704C0.126,-0.704 0.203,-0.703 0.279,-0.703C0.229,-0.61 0.195,-0.509 0.161,-0.41C0.16,-0.406 0.159,-0.403 0.158,-0.4C0.136,-0.4 0.115,-0.399 0.093,-0.396C0.08,-0.395 0.073,-0.378 0.076,-0.366C0.078,-0.36 0.082,-0.355 0.088,-0.352C0.093,-0.348 0.098,-0.348 0.103,-0.348C0.102,-0.348 0.108,-0.349 0.109,-0.349C0.112,-0.35 0.115,-0.35 0.118,-0.35C0.123,-0.351 0.129,-0.351 0.135,-0.351L0.141,-0.351C0.139,-0.343 0.136,-0.334 0.133,-0.326C0.123,-0.297 0.112,-0.269 0.103,-0.24C0.094,-0.21 0.088,-0.179 0.08,-0.148C0.072,-0.118 0.062,-0.089 0.052,-0.059C0.048,-0.047 0.044,-0.034 0.04,-0.022C0.036,-0.009 0.044,0.005 0.057,0.008C0.07,0.012 0.084,0.004 0.087,-0.009C0.096,-0.039 0.107,-0.068 0.116,-0.097C0.126,-0.127 0.133,-0.158 0.14,-0.188C0.144,-0.204 0.148,-0.219 0.153,-0.234C0.157,-0.249 0.162,-0.263 0.168,-0.278C0.176,-0.302 0.185,-0.326 0.193,-0.351C0.209,-0.35 0.225,-0.349 0.241,-0.349C0.255,-0.349 0.266,-0.361 0.266,-0.374C0.266,-0.387 0.255,-0.398 0.241,-0.398C0.231,-0.398 0.22,-0.399 0.209,-0.399C0.224,-0.443 0.239,-0.486 0.255,-0.529C0.26,-0.543 0.265,-0.557 0.271,-0.571C0.272,-0.574 0.274,-0.577 0.275,-0.58C0.276,-0.582 0.276,-0.584 0.277,-0.585L0.277,-0.586L0.286,-0.607C0.298,-0.634 0.311,-0.661 0.326,-0.686C0.331,-0.696 0.337,-0.706 0.342,-0.715C0.349,-0.727 0.345,-0.742 0.334,-0.749Z" style="fill:white;fill-rule:nonzero;"/>
        </g>
    </g>
</svg>
